Simply-Black-Circles/scalable/apps/sun-java6.svg

<svg xmlns="http://www.w3.org/2000/svg" width="48" height="48" viewBox="0 0 12.7 12.7"><path fill="#1a1a1a" d="M6.344.073a6.29 6.29 0 0 0-6.29 6.29 6.29 6.29 0 0 0 6.29 6.288 6.29 6.29 0 0 0 6.29-6.289 6.29 6.29 0 0 0-6.29-6.29zm-.018.936a5.407 5.407 0 0 1 5.407 5.407 5.407 5.407 0 0 1-5.407 5.407A5.407 5.407 0 0 1 .92 6.416 5.407 5.407 0 0 1 6.326 1.01zm1.339 1.637c-1.112-.025-2.406.523-3.45 1.567-1.472 1.472-1.957 3.44-1.246 4.694.308-.764 1.105-1.916 3.17-2.64 2.253-.79 3.005-2.252 3.241-2.939-.002 0-.002-.003-.004-.004-.442-.442-1.044-.663-1.711-.677v-.001zm2.043 1.108c-.179.417-.49.962-1.027 1.498-.539.54-1.305 1.07-2.39 1.45-2.203.772-2.818 2.037-2.99 2.65a.52.52 0 0 1 .023.024c1.18 1.18 3.49.782 5.162-.89C9.973 7 10.45 5.006 9.708 3.754z"/></svg>

<?xml version="1.0" encoding="UTF-8" standalone="no"?>
<svg
   xmlns:dc="http://purl.org/dc/elements/1.1/"
   xmlns:cc="http://creativecommons.org/ns#"
   xmlns:rdf="http://www.w3.org/1999/02/22-rdf-syntax-ns#"
   xmlns:svg="http://www.w3.org/2000/svg"
   xmlns="http://www.w3.org/2000/svg"
   xmlns:sodipodi="http://sodipodi.sourceforge.net/DTD/sodipodi-0.dtd"
   xmlns:inkscape="http://www.inkscape.org/namespaces/inkscape"
   width="48"
   height="48"
   viewBox="0 0 12.7 12.7"
   version="1.1"
   id="svg4"
   sodipodi:docname="sun-java6.svg"
   inkscape:version="0.92.4 (5da689c313, 2019-01-14)">
  <metadata
     id="metadata10">
    <rdf:RDF>
      <cc:Work
         rdf:about="">
        <dc:format>image/svg+xml</dc:format>
        <dc:type
           rdf:resource="http://purl.org/dc/dcmitype/StillImage" />
        <dc:title></dc:title>
      </cc:Work>
    </rdf:RDF>
  </metadata>
  <defs
     id="defs8" />
  <sodipodi:namedview
     pagecolor="#ffffff"
     bordercolor="#666666"
     borderopacity="1"
     objecttolerance="10"
     gridtolerance="10"
     guidetolerance="10"
     inkscape:pageopacity="0"
     inkscape:pageshadow="2"
     inkscape:window-width="1087"
     inkscape:window-height="480"
     id="namedview6"
     showgrid="false"
     inkscape:zoom="4.9166667"
     inkscape:cx="2.1355932"
     inkscape:cy="24"
     inkscape:window-x="0"
     inkscape:window-y="25"
     inkscape:window-maximized="0"
     inkscape:current-layer="svg4" />
  <path
     d="m 6.344,0.073 a 6.29,6.29 0 0 0 -6.29,6.29 6.29,6.29 0 0 0 6.29,6.288 6.29,6.29 0 0 0 6.29,-6.289 6.29,6.29 0 0 0 -6.29,-6.29 z M 6.326,1.009 A 5.407,5.407 0 0 1 11.733,6.416 5.407,5.407 0 0 1 6.326,11.823 5.407,5.407 0 0 1 0.92,6.416 5.407,5.407 0 0 1 6.326,1.01 Z M 7.665,2.646 C 6.553,2.621 5.259,3.169 4.215,4.213 2.743,5.685 2.258,7.653 2.969,8.907 3.277,8.143 4.074,6.991 6.139,6.267 8.392,5.477 9.144,4.015 9.38,3.328 9.378,3.328 9.378,3.325 9.376,3.324 8.934,2.882 8.332,2.661 7.665,2.647 Z M 9.708,3.754 C 9.529,4.171 9.218,4.716 8.681,5.252 8.142,5.792 7.376,6.322 6.291,6.702 4.088,7.474 3.473,8.739 3.301,9.352 a 0.52,0.52 0 0 1 0.023,0.024 c 1.18,1.18 3.49,0.782 5.162,-0.89 C 9.973,7 10.45,5.006 9.708,3.754 Z"
     id="path2"
     inkscape:connector-curvature="0"
     style="fill:#1a1a1a" />
</svg>
